img/contracts__img-png.svg

<svg width="37" height="39" viewBox="0 0 37 39" fill="none" xmlns="http://www.w3.org/2000/svg">
<g opacity="0.8">
<path d="M24.4365 0H5.26126C4.72741 0 4.29464 0.456161 4.29464 1.34132V38.3036C4.29464 38.5438 4.72741 39 5.26126 39H31.7387C32.2726 39 32.7054 38.5438 32.7054 38.3036V9.03825C32.7054 8.55354 32.6439 8.39754 32.5356 8.28263L24.8475 0.178982C24.7385 0.0647679 24.5905 0 24.4365 0Z" fill="#E9E9E0"/>
<path d="M31.7387 38.9999H5.26126C4.72741 38.9999 4.29464 38.5438 4.29464 37.9811V27.1606H32.7054V37.9811C32.7054 38.5438 32.2726 38.9999 31.7387 38.9999Z" fill="#B8B8B8"/>
<path d="M24.7768 0.105225V8.35721H32.6056L24.7768 0.105225Z" fill="#D9D7CA"/>
<path d="M11.4865 36.9108H10.4023V29.8936H12.317C12.5998 29.8936 12.88 29.9409 13.1568 30.0363C13.4336 30.1317 13.6821 30.2745 13.9021 30.4646C14.1221 30.6548 14.2998 30.8853 14.4353 31.1548C14.5707 31.4243 14.6388 31.7273 14.6388 32.0643C14.6388 32.4202 14.5813 32.7419 14.467 33.031C14.3527 33.32 14.1928 33.563 13.988 33.7594C13.7832 33.9558 13.536 34.1083 13.2473 34.2163C12.9586 34.3242 12.6388 34.3779 12.2899 34.3779H11.4858V36.9108H11.4865ZM11.4865 30.7599V33.5401H12.4802C12.6124 33.5401 12.7432 33.5164 12.8733 33.4683C13.0028 33.421 13.1218 33.343 13.2301 33.235C13.3385 33.1271 13.4257 32.9766 13.4918 32.783C13.5578 32.5894 13.5909 32.3499 13.5909 32.0643C13.5909 31.9501 13.5757 31.8178 13.546 31.6694C13.5156 31.5204 13.4541 31.3776 13.361 31.2411C13.2671 31.1046 13.1363 30.9904 12.9678 30.8985C12.7993 30.8066 12.576 30.7606 12.2992 30.7606H11.4865V30.7599Z" fill="white"/>
<path d="M20.6909 29.8936V36.9108H19.5889L16.9784 32.0741V36.9108H15.8763V29.8936H16.9784L19.5889 34.7303V29.8936H20.6909Z" fill="white"/>
<path d="M27.195 33.2928V36.0061C27.0562 36.1906 26.9016 36.3403 26.7299 36.458C26.5581 36.5757 26.3777 36.6725 26.1881 36.7485C25.9984 36.8244 25.8022 36.8787 25.6007 36.9107C25.3985 36.9428 25.199 36.9581 25.0001 36.9581C24.6024 36.9581 24.237 36.8822 23.9027 36.7297C23.5683 36.5771 23.2763 36.3522 23.0266 36.0534C22.7768 35.7547 22.5806 35.3807 22.4392 34.9301C22.2978 34.4795 22.2271 33.9586 22.2271 33.3687C22.2271 32.7788 22.2978 32.2593 22.4392 31.8122C22.5806 31.3644 22.7761 30.9918 23.0266 30.6937C23.2763 30.3949 23.5697 30.1686 23.9073 30.0126C24.2442 29.8566 24.609 29.7793 25.0001 29.7793C25.3615 29.7793 25.6985 29.8427 26.0117 29.9694C26.3248 30.0969 26.6043 30.287 26.8514 30.5405L26.1015 31.2453C25.9568 31.0607 25.791 30.9277 25.6047 30.8455C25.4177 30.7634 25.2254 30.7216 25.0265 30.7216C24.8039 30.7216 24.5911 30.7654 24.3896 30.8546C24.1874 30.9437 24.0071 31.0942 23.8478 31.3066C23.6879 31.5197 23.5631 31.7934 23.4732 32.1304C23.3833 32.4675 23.3344 32.8791 23.3285 33.368C23.3344 33.8443 23.3814 34.2566 23.4686 34.6055C23.5558 34.9545 23.676 35.24 23.83 35.4622C23.9839 35.6843 24.1584 35.8494 24.3539 35.9573C24.5495 36.0653 24.7556 36.1189 24.973 36.1189C25.0391 36.1189 25.1276 36.114 25.2393 36.1043C25.3503 36.0945 25.4619 36.0792 25.5736 36.0569C25.6846 36.0346 25.7916 36.0047 25.8941 35.9664C25.9965 35.9281 26.0718 35.8744 26.12 35.8048V34.0721H24.9909V33.2914H27.195V33.2928Z" fill="white"/>
<path d="M12.508 13.2321C14.1752 13.2321 15.5268 11.8075 15.5268 10.0501C15.5268 8.29279 14.1752 6.86816 12.508 6.86816C10.8407 6.86816 9.48917 8.29279 9.48917 10.0501C9.48917 11.8075 10.8407 13.2321 12.508 13.2321Z" fill="#B8B8B8"/>
<path d="M4.29464 27.1608H11.5625H32.7054V19.5001L26.0982 12.884L19.1607 20.893L15.538 17.0744L4.29464 27.1608Z" fill="#B8B8B8"/>
</g>
</svg>

<svg width="37" height="39" viewBox="0 0 37 39" fill="none" xmlns="http://www.w3.org/2000/svg"><g opacity=".8"><path d="M24.436 0H5.261c-.534 0-.966.456-.966 1.341v36.963c0 .24.432.696.966.696H31.74c.534 0 .966-.456.966-.696V9.038c0-.484-.061-.64-.17-.755L24.849.179A.569.569 0 0024.436 0z" fill="#E9E9E0"/><path d="M31.739 39H5.26c-.534 0-.966-.456-.966-1.019v-10.82h28.41v10.82c0 .563-.432 1.019-.966 1.019z" fill="#B8B8B8"/><path d="M24.777.105v8.252h7.829L24.776.105z" fill="#D9D7CA"/><path d="M11.486 36.91h-1.084v-7.016h1.915c.283 0 .563.047.84.142a2.22 2.22 0 011.278 1.119c.136.27.204.572.204.91 0 .355-.058.677-.172.966a2.025 2.025 0 01-.479.728 2.138 2.138 0 01-.74.457 2.718 2.718 0 01-.958.162h-.804v2.533zm0-6.15v2.78h.994c.132 0 .263-.024.393-.072a.982.982 0 00.357-.233c.108-.108.196-.258.262-.452a2.25 2.25 0 00.054-1.114 1.111 1.111 0 00-.578-.77c-.169-.092-.392-.138-.669-.138h-.813v-.001zm9.204-.866v7.017h-1.1l-2.61-4.837v4.837h-1.103v-7.017h1.102l2.61 4.836v-4.836h1.103zm6.505 3.399v2.713a1.99 1.99 0 01-.465.452 2.798 2.798 0 01-1.13.453 3.818 3.818 0 01-.6.047c-.398 0-.763-.076-1.097-.228a2.469 2.469 0 01-.876-.677 3.241 3.241 0 01-.588-1.123c-.141-.45-.212-.971-.212-1.561s.07-1.11.212-1.557c.142-.448.337-.82.588-1.118A2.509 2.509 0 0125 29.779c.361 0 .698.064 1.012.19.313.128.592.318.84.572l-.75.704a1.299 1.299 0 00-.497-.4 1.424 1.424 0 00-.579-.123 1.54 1.54 0 00-.636.133c-.203.089-.383.24-.542.452-.16.213-.285.486-.375.823a5.11 5.11 0 00-.145 1.238c.006.476.053.889.14 1.237.088.35.208.635.362.857.154.222.328.387.524.495.195.108.402.162.619.162a3.244 3.244 0 00.6-.062 2.05 2.05 0 00.321-.09.46.46 0 00.226-.162v-1.733h-1.13v-.78h2.205z" fill="#fff"/><path d="M12.508 13.232c1.667 0 3.019-1.425 3.019-3.182s-1.352-3.182-3.019-3.182-3.019 1.425-3.019 3.182 1.352 3.182 3.019 3.182zM4.295 27.16h28.41V19.5l-6.607-6.616-6.937 8.009-3.623-3.819L4.295 27.161z" fill="#B8B8B8"/></g></svg>
